X:5
T:Addington Highland's Hornpipe
C:Bruce Osborne Mar.24 2002
M:4/4
L:1/8
Q: 400
K:A
EF|A2 cA EAcf|ecfc ecAc|defd cecA|dcBA GEFG|
A2 cA EAcf|ecfc ecAc|defd ceaf|ecBc A2:|
|:cd|eaga faec|EAcf e2 Bc|dBGB EGBG|ABcf e2 cd|
eaga faec|EAcf e2 Bc|dBGB EGBd|cAAG A2:|